assets/zoom_fit.svg

<svg xmlns="http://www.w3.org/2000/svg" viewBox="-4 -4 40 40"><path d="m12 0a1 1 0 000 24 1 1 0 000-24m0 20.5a1 1 0 010-17 1 1 0 010 17M9 10v-2q1.5 0 2-1h2v8h2v2h-6v-2h2v-5zm10.5 10.8 1 1v1.4l9 8.8 2.5-2.5-8.8-9h-1.4l-1-1"/></svg>

<svg xmlns="http://www.w3.org/2000/svg" viewBox="-6 -6 44 44">
<path d="M12 0A1 1 0 0012 24A1 1 0 0012 0M12 20.5A1 1 0 0112 3.5A1 1 0 0112 20.5M9 10L9 8Q10.5 8 11 7L13 7L13 15L15 15L15 17L9 17L9 15L11 15L11 10ZM19.8 21.1L20.5 21.8L20.5 23.2L29.5 32L32 29.5L23.2 20.5L21.8 20.5L21.1 19.8Z" />
</svg>
